!!!COM: Johanna Kinkel
!!!CNT: Deutsch
!!!TXO: Deutsch
!!!OTL: Abendfeier
!!!LYR: Geibel
!!!OPR: 6 Geditche von E. Geibel
!!!OPS: Op. 8
!!!ONM: No. 4
!!!ENC: Ben Fuhrman
!!!YOR: Johanna Kinkel: Lieder, volume 1 Poetry by Geibel and Goethe
!!!YOR: Bryn Mawr, Fildegard Publishing CO, 2000
!!!ODT: 1838
!!NB: Only vocal melody encoded.
!!NB: First instance of melodic material only encoded.
!!created: 2/23/10 1:47PM
!!proofed and posted: 2/23/10 1:47PM
**kern	**silbe
*clef G2	*
*k[]	*
*M12/8	*
*MM[Lento]	*
=9	=9
{4.a	{A-
4a	-ve,
8a	Ma-
2.cc	-ri-
=10	=10
2.f}	-a!}
2.r	.
=11	=11
{[4.a	{Meer
4a]	|
8e	und
4.b	Him-
4.e	-mel
=12	=12
[2.cc#	ruh'n
4.cc#]	|
4.cc#	von
=13	=13
4.dd	al-
4.cc#	-len
4.dd	Thu2r-
4.a	-men
=14	=14
4.f#	hallt
4.d	der
4.c	Glo-
(4d	-cken-
8c)	|
=15	=15
[2.f	-ton!
4.f]}	|}
4r	.
8r	.
!! Rest to meaure 18
=18	=18
{4.a	{A-
4a	-ve
8a	Ma-
2.cc	-ri-
=19	=19
2.f}	-a!}
2.r	.
=20	=20
{[4.a	{Lasst
4a]	|
8f#	vom
4.b	irrd'-
4.f#	-schen
=21	=21
[2.cc#	Thun!
4.cc#]	|
4.cc#	Zur
=22	=22
4.dd	Jung-
4.cc#	-frau
4.dd	be-
4.a	-tet,
=23	=23
4.f	zu
4.d	der
4.c	Jung-
(4d	-frau
8c)	|
=24	=24
[2.f	Sonn.
4.f]}	|}
4r	.
{8b	{Der
=25	=25
4.cc	En-
4.b	-gel
4.a	Schaa-
4.e	-ren
=26	=26
4b	sel-
8b	-ber
4a	knie-
8a	-en
4.g#	nun
(4a	mit
8b)	|
=27	=27
(4.cc	Li-
4dd)	|
8cc	-lien-
4b	-sta2-
8a	-ben
4g	vor
8cc	des
=28	=28
4.g	Va-
4.f	-ters
4.e}	Thorn.}
4r	.
8r	.
=29	=29
{4.ee	{Und
4dd	aus
8dd	den
4.cc	Ro-
4.g	-sen-
=30	=30
4dd	wol-
8cc	-ken
4b	wehn
16cc	die
16dd	|
(4ee	Lie-
8dd)	|
4cc	-der
8b	der
=31	=31
4a	seel'-
8a	-gen
4cc	Geis-
8b	-ter
4a	fei-
8g#	-er-
4a	-lich
8dd	her-
=32	=32
(2.cc#	-nie
2.b)	|
=33	=33
2.a}	-der.}
2.r	.
==	==
*-	*-
